logos/nhost-icon.svg

<?xml version="1.0" encoding="UTF-8"?>
<svg width="256px" height="273px" viewBox="0 0 256 273" version="1.1" xmlns="http://www.w3.org/2000/svg" preserveAspectRatio="xMidYMid">
    <title>Nhost</title>
    <g>
        <path d="M232.105302,58.516901 L136.961578,3.68108504 C128.38374,-1.22702835 117.848524,-1.22702835 109.270685,3.68108504 C100.729771,8.61824027 95.4617256,17.7276356 95.4423006,27.5928448 L95.4423006,34.7501643 L89.2404279,31.1672392 C80.6625897,26.2591258 70.1273733,26.2591258 61.5495351,31.1672392 C52.9967351,36.1133165 47.7271257,45.2416714 47.7211503,55.1216529 L47.7211503,62.2704416 L41.5192776,58.6960472 C32.943619,53.7911873 22.4125741,53.7911873 13.8369156,58.6960472 C5.29136713,63.6338496 0.0198993199,72.746794 0,82.6163378 L0,254.392005 C0.0129569847,259.37181 2.8656742,263.907893 7.34842197,266.076672 C11.8311697,268.245451 17.1583909,267.666869 21.071012,264.58628 L68.2461928,227.44329 L141.013696,269.363514 C145.051574,271.650918 149.993779,271.650918 154.031657,269.363514 C158.041121,267.043143 160.540638,262.743633 160.540638,258.111423 L160.540638,154.761094 C160.509827,137.741543 151.418589,122.026084 136.680063,113.514802 L112.819487,99.7631937 L112.819487,27.6184372 C112.828281,23.9350634 114.799162,20.5354761 117.991266,18.6975983 C121.183369,16.8597205 125.112944,16.8620756 128.302842,18.7037782 L223.446566,73.5140018 C232.821793,78.930807 238.606386,88.9271035 238.631344,99.754663 L238.631344,228.475513 C238.631344,232.143746 236.652204,235.556056 233.470226,237.390172 L208.261788,251.918081 L208.261788,127.240817 C208.227938,110.224315 199.137107,94.5128101 184.401213,86.0030551 L125.828918,52.2638435 L125.828918,72.2514473 L175.725416,101.000156 C185.104487,106.413113 190.890488,116.411842 190.910194,127.240817 L190.910194,259.399569 C190.910194,264.006188 193.40118,268.33129 197.419174,270.651661 C201.457499,272.937368 206.39881,272.937368 210.437136,270.651661 L242.163084,252.370212 C250.693859,247.447955 256,238.294434 256,228.44139 L256,99.7205399 C255.922547,82.7158219 246.825943,67.0297828 232.105302,58.516901 L232.105302,58.516901 Z M127.961612,128.503372 C137.343317,133.917856 143.129725,143.920539 143.146389,154.752564 L143.146389,250.638464 L82.9020627,215.926745 L102.241328,200.724905 C108.916491,195.51287 112.808419,187.508596 112.785364,179.039677 L112.785364,119.784921 L127.970142,128.511902 L127.961612,128.503372 Z M95.4337699,109.761261 L95.4337699,179.005554 C95.4337699,182.187533 93.992069,185.147712 91.501083,187.092728 L17.3430637,245.443223 L17.3430637,82.5907455 C17.3483496,78.907779 19.3171497,75.5071173 22.5084563,73.6686854 C25.6997629,71.8302535 29.6292243,71.8330745 32.817888,73.6760865 L47.7211503,82.2495145 L47.7211503,205.007354 L65.0642141,191.358115 L65.0642141,55.1045913 C65.067741,51.4189823 67.0377097,48.0153604 70.2317427,46.1763717 C73.4257757,44.337383 77.358382,44.3425526 80.5475691,46.1899324 L95.4337699,54.7548296 L95.4337699,89.7480649 L78.0992369,79.7499977 L78.0992369,99.754663 L95.4508314,109.761261 L95.4337699,109.761261 Z" fill="#0052CD"></path>
    </g>
</svg>

<svg preserveAspectRatio="xMidYMid" viewBox="0 0 256 273" xmlns="http://www.w3.org/2000/svg">
  <path fill="#0052CD" d="M232.105 58.517 136.962 3.68a27.879 27.879 0 0 0-27.691 0 27.682 27.682 0 0 0-13.829 23.912v7.157l-6.202-3.583a27.879 27.879 0 0 0-27.69 0 27.69 27.69 0 0 0-13.83 23.956v7.148l-6.202-3.574a27.879 27.879 0 0 0-27.682 0A27.69 27.69 0 0 0 0 82.616v171.776a13.018 13.018 0 0 0 21.071 10.194l47.175-37.143 72.768 41.92a13.206 13.206 0 0 0 13.018 0c4.01-2.32 6.509-6.62 6.509-11.252v-103.35a47.73 47.73 0 0 0-23.86-41.246l-23.862-13.752V27.618a10.322 10.322 0 0 1 15.484-8.914l95.144 54.81a30.387 30.387 0 0 1 15.184 26.24v128.722c0 3.668-1.979 7.08-5.16 8.914l-25.21 14.528V127.241a47.73 47.73 0 0 0-23.86-41.238l-58.572-33.74v19.988l49.896 28.75a30.361 30.361 0 0 1 15.185 26.24V259.4c0 4.606 2.491 8.931 6.51 11.252a13.214 13.214 0 0 0 13.017 0l31.726-18.282c8.53-4.922 13.837-14.076 13.837-23.929V99.721a47.85 47.85 0 0 0-23.895-41.204Zm-104.143 69.986a30.361 30.361 0 0 1 15.184 26.25v95.885l-60.244-34.711 19.34-15.202a27.418 27.418 0 0 0 10.543-21.685v-59.255l15.185 8.727-.008-.009Zm-32.528-18.742v69.245c0 3.182-1.442 6.142-3.933 8.087l-74.158 58.35V82.591a10.314 10.314 0 0 1 15.475-8.915L47.72 82.25v122.757l17.343-13.649V55.105a10.314 10.314 0 0 1 15.484-8.915l14.886 8.565v34.993L78.099 79.75v20.005l17.352 10.006h-.017Z"/>
</svg>
